app/dist/common/images/tanzanian-gold-corporation.svg

<svg height="18" width="18" xmlns="http://www.w3.org/2000/svg"><path d="m0 0h18v18h-18z" fill="#f0f3fa"/><path d="m14 5h-5v4h5zm-8 6h-2v2h2zm.5-1.26h1.5v.74h-1.5zm3.66 0h-1.16v.73h1.16zm-2.16 2.8h1v.46h-1v-.47z" fill="#ce9d50"/></svg>

<!-- by TradingView --><svg xmlns="http://www.w3.org/2000/svg" width="18" height="18"><path fill="#F0F3FA" d="M0 0h18v18H0z"/><path d="M14 5H9v4h5V5zm-8 6H4v2h2v-2zm.5-1.26H8v.74H6.5v-.74zm3.66 0H9v.73h1.16v-.73zM8 12.54h1V13H8v-.47z" fill="#CE9D50"/></svg>
